!!!COM: Palestrina, Giovanni Perluigi da
!!!OPR: Missa Repleatur os meum laude
!!!OMD: Credo
!!!OTL: First Section
**kern	**kern	**kern	**kern	**kern
*Ibass	*Itenor	*Icalto	*Icalto	*Icant
!Bassus	!Tenor	!Altus 2	!Altus 1	!Cantus
*clefF4	*clefGv2	*clefG2	*clefG2	*clefG2
*k[]	*k[]	*k[]	*k[]	*k[]
*E:phr	*E:phr	*E:phr	*E:phr	*E:phr
*M4/2	*M4/2	*M4/2	*M4/2	*M4/2
=1	=1	=1	=1	=1
0r	0r	0r	1B	0r
.	.	.	2B	.
.	.	.	2B	.
=2	=2	=2	=2	=2
0r	0r	0r	2d	0r
.	.	.	2d	.
.	.	.	1c	.
=3	=3	=3	=3	=3
1E	0r	0r	1B	0r
2E	.	.	2r	.
2E	.	.	2e	.
=4	=4	=4	=4	=4
2G	0r	0r	2e	0r
2G	.	.	2e	.
1F	.	.	2f	.
.	.	.	2d	.
=5	=5	=5	=5	=5
1E	0r	0r	4g	1e
.	.	.	4f	.
.	.	.	4e	.
.	.	.	4d	.
2r	.	.	2c	2e
2E	.	.	4B	2e
.	.	.	4A	.
=6	=6	=6	=6	=6
2E	0r	0r	2B	2g
2E	.	.	2.e	2g
2F	.	.	.	1f
.	.	.	4d	.
2D	.	.	[2d	.
=7	=7	=7	=7	=7
2.A	0r	0r	2d]	1e
.	.	.	2c	.
4G	.	.	.	.
4F	.	.	[1f	2r
4E	.	.	.	.
[2D	.	.	.	2a
=8	=8	=8	=8	=8
2D]	0r	0r	2f]	2a
2C	.	.	2e	2a
1BB	.	.	1d	2b
.	.	.	.	2g
=9	=9	=9	=9	=9
2AA	1E	0r	2c	2.cc
2.AA	.	.	2A	.
.	.	.	.	4b
.	2E	.	1c	2a
4BB	.	.	.	.
4C	2E	.	.	[2g
4D	.	.	.	.
=10	=10	=10	=10	=10
2E	2G	0r	2B	4g]
.	.	.	.	4f
2C	2G	.	2c	1e
1D	1F	.	2A	.
.	.	.	2B	2d
=11	=11	=11	=11	=11
[0AA	1E	1A	2.c	2e
.	.	.	.	1a
.	.	.	8B	.
.	.	.	8A	.
.	2r	2A	2.c	.
.	2A	2A	.	[2cc
.	.	.	4d	.
=12	=12	=12	=12	=12
1AA]	2A	2c	[0e	2cc]
.	2A	2c	.	4b
.	.	.	.	4a
1E	2B	1B	.	4g
.	.	.	.	4a
.	2G	.	.	2b
=13	=13	=13	=13	=13
0r	1c	1A	1e]	2e
.	.	.	.	1a
.	[1B	2r	1d	.
.	.	2d	.	4g
.	.	.	.	4f#
=14	=14	=14	=14	=14
1r	1B]	2d	2r	1g#
.	.	2d	2d	.
2r	1A	2e	4c	2a
.	.	.	4A	.
[2A	.	2c	[2e	[2cc
=15	=15	=15	=15	=15
2A]	0r	1f	2e]	2cc]
2F	.	.	1d	2a
2G	.	[1e	.	2b
2G	.	.	4c	2b
.	.	.	4B	.
=16	=16	=16	=16	=16
1A	2r	1e]	1c	2.a
.	1A	.	.	.
.	.	.	.	4g
2.D	.	1d	2A	2.f
.	2F	.	[2d	.
4C	.	.	.	4e
=17	=17	=17	=17	=17
2BB	2G	0r	2d]	1d
2BB	2G	.	2B	.
1AA	1A	.	2c	2f
.	.	.	2c	2e
=18	=18	=18	=18	=18
0r	2.D	2r	2d	1f
.	.	1d	1A	.
.	4E	.	.	.
.	2F	.	.	2r
.	2G	2B	2B	2d
=19	=19	=19	=19	=19
1r	1E	2c	2G	2e
.	.	2c	2G	1g
1D	1r	1d	1A	.
.	.	.	.	2f#
=20	=20	=20	=20	=20
2E	0r	2.G	2c	4g
.	.	.	.	4a
1G	.	.	2B	4b
.	.	4A	.	4cc
.	.	2B	2d	4b
.	.	.	.	4a
2C	.	2c	2e	[2g
=21	=21	=21	=21	=21
1D	2r	1A	1d	2g]
.	2D	.	.	2f#
2.C	2E	1r	2r	1g
.	[2G	.	2G	.
4BB	.	.	.	.
=22	=22	=22	=22	=22
2AA	2G]	0r	2A	2.c
2AA	2F#	.	2.c	.
.	.	.	.	4d
2GG	2.G	.	.	2e
.	.	.	8B	.
.	.	.	8A	.
[2G	.	.	4B	2d
.	4A	.	4c	.
=23	=23	=23	=23	=23
2G]	2B	2r	2d	1g
2C	2.c	2G	2e	.
2F	.	2A	2.c	1r
.	8B	.	.	.
.	8A	.	.	.
2F	[2A	[2c	.	.
.	.	.	4d	.
=24	=24	=24	=24	=24
2E	4A]	2c]	2e	1r
.	8G	.	.	.
.	8F#	.	.	.
2E	2G#	2B	2e	.
1AA	[1A	2.c	2.e	2r
.	.	.	.	2a
.	.	4d	4d	.
=25	=25	=25	=25	=25
2r	1A]	2e	4c	1a
.	.	.	4B	.
2D	.	2.f	2A	.
1D	1r	.	1d	2b-
.	.	8e	.	.
.	.	8d	.	.
.	.	[2d	.	[2a
=26	=26	=26	=26	=26
1E	1G	4d]	0r	2a]
.	.	8c	.	.
.	.	8B	.	.
.	.	2c#	.	1g
1D	1A	[1d	.	.
.	.	.	.	2f#
=27	=27	=27	=27	=27
2.G	1B	1d]	2r	0g
.	.	.	2G	.
4F	.	.	.	.
2E	1G	1r	2B	.
2C	.	.	[2c	.
=28	=28	=28	=28	=28
2.F	1.A	1c	4c]	0r
.	.	.	4B	.
.	.	.	4A	.
4E	.	.	4G	.
1D	.	1d	1F	.
.	2A	.	.	.
=29	=29	=29	=29	=29
1C	1c	1e	2G	1g
.	.	.	1E	.
1AA	1c	1c	.	1a
.	.	.	2E	.
=30	=30	=30	=30	=30
1GG	0B	1.d	2G	1b
.	.	.	4G	.
.	.	.	4A	.
1G	.	.	4B	1g
.	.	.	4c	.
.	.	2d	[2d	.
=31	=31	=31	=31	=31
2.D	0A	1f	2d]	1a
.	.	.	2d	.
4E	.	.	.	.
1F	.	1f	1c	2a
.	.	.	.	2a
=32	=32	=32	=32	=32
1C	0G	0e	1c	2cc
.	.	.	.	2cc
2E	.	.	2r	1b
2E	.	.	2G	.
=33	=33	=33	=33	=33
1G	1r	0d	2B	2b
.	.	.	2B	2g
1G	2r	.	4d	2b
.	.	.	4G	.
.	2G	.	2g	2b
=34	=34	=34	=34	=34
0r	2A	0c	1e	2.cc
.	2A	.	.	.
.	.	.	.	4b
.	2.c	.	2.e	2a
.	.	.	.	2g
.	4B	.	4d	.
=35	=35	=35	=35	=35
0r	2A	1r	2c	4f
.	.	.	.	4e
.	2G	.	2B	1g
.	2c	2r	2A	.
.	2c	2c	2A	2f#
=36	=36	=36	=36	=36
1G	1B	2d	2G	1g
.	.	2d	2B	.
2.A	1r	2.f	2.c	1r
4G	.	4e	4B	.
=37	=37	=37	=37	=37
2F	0r	2d	2A	1r
2E	.	2c	2G	.
2D	.	2f	2d	2r
2D	.	2f	2d	[2a
=38	=38	=38	=38	=38
0AA	2r	1e	2.c	2a]
.	1A	.	.	2a
.	.	.	4d	.
.	.	1r	1e	2.cc
.	2A	.	.	.
.	.	.	.	4b
=39	=39	=39	=39	=39
0r	2.c	0r	2r	2a
.	.	.	2e	2g
.	4B	.	.	.
.	2A	.	2e	2cc
.	2G	.	[2g	[2b
=40	=40	=40	=40	=40
0r	2c	2r	4g]	4b]
.	.	.	8f	4a
.	.	.	8e	.
.	2d	1d	2f	1a
.	1B	.	[1d	.
.	.	2d	.	2g#
=41	=41	=41	=41	=41
1D	1A	2.f	1d]	0a
.	.	4e	.	.
2D	1r	2d	2.f	.
[2F	.	2c	.	.
.	.	.	4e	.
=42	=42	=42	=42	=42
2F]	0r	2f	4d	0r
.	.	.	4c	.
2E	.	2g	2.e	.
4C	.	1e	.	.
4D	.	.	4d	.
4E	.	.	[2c	.
4F	.	.	.	.
=43	=43	=43	=43	=43
1G	1r	1d	2c]	2r
.	.	.	2B	2d
1C	2r	1r	1c	1e
.	2G	.	.	.
=44	=44	=44	=44	=44
2F	1A	0r	2r	2f
2A	.	.	2c	2f
2.G	2B	.	1d	1g
.	2B	.	.	.
4F	.	.	.	.
=45	=45	=45	=45	=45
1E	2c	1r	2e	2r
.	2.B	.	2e	2g
2D	.	2r	2f	1a
.	4A	.	.	.
2C	[2A	2c	[2e	.
=46	=46	=46	=46	=46
1BB	4A]	1d	4e]	2b
.	4G#	.	4d	.
.	4G#	.	2d	2b
.	4F#	.	.	.
1AA	[1A	2e	2c	2.cc
.	.	2e	2A	.
.	.	.	.	4b
=47	=47	=47	=47	=47
0r	2A]	2f	1c	4a
.	.	.	.	4b
.	2A	2.e	.	4cc
.	.	.	.	4a
.	2G	.	1d	2b
.	.	4d	.	.
.	2F	[2d	.	[2a
=48	=48	=48	=48	=48
0r	1E	4d]	2r	2a]
.	.	4c#	.	.
.	.	4c#	2G	1g
.	.	4B	.	.
.	1D	[1d	2A	.
.	.	.	2A	2f#
=49	=49	=49	=49	=49
1G	1r	2d]	2.B	0g
.	.	2d	.	.
.	.	.	8c	.
.	.	.	8d	.
2E	1G	2c	1e	.
2E	.	2B	.	.
=50	=50	=50	=50	=50
1F#	2A	1A	0d	1r
.	2A	.	.	.
1G	1B	1G	.	2r
.	.	.	.	2d
=51	=51	=51	=51	=51
1C	1c	1r	2r	2e
.	.	.	2G	2e
2F	1r	1c	2A	1f
2A	.	.	2A	.
=52	=52	=52	=52	=52
2.G	1r	2d	1.B	0g
.	.	2d	.	.
4F	.	.	.	.
2E	1G	1e	.	.
2E	.	.	2c	.
=53	=53	=53	=53	=53
1D	2A	1f	0d	1r
.	2A	.	.	.
1GG	2B	1r	.	1d
.	2B	.	.	.
=54	=54	=54	=54	=54
2.C	1c	1r	1G	2e
.	.	.	.	2e
4BB	.	.	.	.
2AA	1r	1c	1A	2f
2AA	.	.	.	2f
=55	=55	=55	=55	=55
1GG	0r	2d	1B	2g
.	.	2d	.	1g
1C	.	2e	2.c	.
.	.	2e	.	[2a
.	.	.	4B	.
=56	=56	=56	=56	=56
1D	1r	1f	2A	2a]
.	.	.	2d	1b
1E	2r	1r	4g	.
.	.	.	4f	.
.	2G	.	4e	[2cc
.	.	.	4d	.
=57	=57	=57	=57	=57
2F	1A	0r	4c	2cc]
.	.	.	4A	.
1D	.	.	1d	1f
.	1B	.	.	.
[2E	.	.	2G	[2g
=58	=58	=58	=58	=58
2E]	1c	1r	2g	2g]
2F	.	.	4f	2a
.	.	.	4e	.
2G	1r	2r	4d	2b-
.	.	.	4e	.
2F	.	2c	[2f	[2a
=59	=59	=59	=59	=59
1B-	1r	1d	4f]	2a]
.	.	.	4e	.
.	.	.	1d	2g
1A	2r	1e	.	[1a
.	2A	.	2c#	.
=60	=60	=60	=60	=60
2r	2D	1f	1d	1a]
2D	2A	.	.	.
2E	2G	1r	2r	2r
2F	2F	.	2A	2d
=61	=61	=61	=61	=61
1G	1E	1r	2B	1e
.	.	.	2c#	.
1A	1D	2r	2d	1f#
.	.	2d	2A	.
=62	=62	=62	=62	=62
2r	0r	2G	2B	2g
2G	.	2d	2B	2g
2C	.	2c	1e	2g
2GG	.	2B	.	2g
=63	=63	=63	=63	=63
4AA	0r	1A	1e	1cc
4BB	.	.	.	.
4C	.	.	.	.
4D	.	.	.	.
2.E	.	1G	2r	[1b
.	.	.	[2B	.
4D	.	.	.	.
=64	=64	=64	=64	=64
4E	2r	0r	2B]	1b]
4F	.	.	.	.
1G	1E	.	2B	.
.	.	.	2e	1r
4F	2E	.	2e	.
4E	.	.	.	.
=65	=65	=65	=65	=65
1F	2A	0r	1d	1r
.	2A	.	.	.
1E	1G#	.	2.e	2r
.	.	.	.	[2e
.	.	.	4d	.
=66	=66	=66	=66	=66
0r	1A	2r	4c	2e]
.	.	.	4B	.
.	.	1A	1c	2e
.	1r	.	.	2a
.	.	2A	4B	2a
.	.	.	4A	.
=67	=67	=67	=67	=67
0r	1r	2d	1B	1g#
.	.	2d	.	.
.	2r	1c#	1A	2.a
.	[2A	.	.	.
.	.	.	.	4g
=68	=68	=68	=68	=68
1.D	2A]	1d	0r	4f
.	.	.	.	4e
.	2A	.	.	1f
.	2d	1r	.	.
2D	2d	.	.	4e
.	.	.	.	4d
=69	=69	=69	=69	=69
1A	1c#	1r	2r	1e
.	.	.	2A	.
2F	2.d	2r	2A	[1d
[2G	.	[2d	2B	.
.	4c	.	.	.
=70	=70	=70	=70	=70
2G]	2B	2d]	2G	1d]
2F	2A	2d	2A	.
1E	1G	2g	2B	1r
.	.	2g	2c#	.
=71	=71	=71	=71	=71
1D	2A	1f#	2d	1r
.	2A	.	1d	.
1GG	1B	2.g	.	2r
.	.	.	2d	[2g
.	.	4f	.	.
=72	=72	=72	=72	=72
0r	2c	2e	2g	2g]
.	2B	2d	2g	2g
.	1A	1c	1f#	2cc
.	.	.	.	2cc
=73	=73	=73	=73	=73
1GG	2G	2d	1g	1b
.	2G	2d	.	.
1C	1E	1e	1g	2.cc
.	.	.	.	4b
=74	=74	=74	=74	=74
2D	0r	2f	2r	2a
2E	.	2e	2.c	2g
2F	.	1d	.	2a
.	.	.	8B	.
.	.	.	8A	.
2G	.	.	2B	4g
.	.	.	.	4f
=75	=75	=75	=75	=75
2.A	1r	2c	1c	4e
.	.	.	.	4d
.	.	2c	.	2e
4G	.	.	.	.
1F	2r	1A	2r	1a
.	2A	.	2c	.
=76	=76	=76	=76	=76
1E	2A	0r	2c	2r
.	2G	.	2B	2e
2r	2.c	.	1A	2e
2F	.	.	.	2c
.	4B	.	.	.
=77	=77	=77	=77	=77
2F	2A	1r	2.c	2f
2C	2G	.	.	1e
.	.	.	4B	.
1D	2F	2r	[1A	.
.	2F	2d	.	2d
=78	=78	=78	=78	=78
1AA	1E	2d	2A]	1e
.	.	2c	2A	.
1D	1r	2.f	[1A	4d
.	.	.	.	4e
.	.	.	.	4f
.	.	4e	.	4g
=79	=79	=79	=79	=79
2.F	2r	2d	1A]	1a
.	2A	2c	.	.
4E	.	.	.	.
2D	2A	2B	1r	2r
2E	2G	2B	.	2e
=80	=80	=80	=80	=80
1AA	1.c	1A	2r	2e
.	.	.	2A	2c
1r	.	1r	2A	2f
.	2B	.	2G	2e
=81	=81	=81	=81	=81
0r	2A	2r	2c	2f
.	2G	2d	2B	2g
.	2.A	2d	2r	2.e
.	.	2c	[2A	.
.	4G	.	.	8f
.	.	.	.	8g
=82	=82	=82	=82	=82
1D	1F	1.f	4A]	0a
.	.	.	4G	.
.	.	.	4F	.
.	.	.	4G	.
2D	1r	.	4A	.
.	.	.	4B	.
2C	.	2e	2c	.
=83	=83	=83	=83	=83
2F	0r	2d	2d	1r
2E	.	2c	2e	.
1D	.	2.d	1f	2r
.	.	.	.	2a
.	.	4c	.	.
=84	=84	=84	=84	=84
1E	1r	1B	1e	2a
.	.	.	.	2g
1AA	2r	1r	2r	[1cc
.	2A	.	2e	.
=85	=85	=85	=85	=85
2r	2A	0r	1e	2cc]
2E	2G	.	.	2b
1F	2.c	.	2A	2.a
.	.	.	[2c	.
.	4B	.	.	4g
=86	=86	=86	=86	=86
2F	2A	1r	4c]	2f
.	.	.	8B	.
.	.	.	8A	.
2G	2G	.	2B	1e
1A	1F	2r	2c	.
.	.	2d	2A	2d
=87	=87	=87	=87	=87
1AA	1E	2d	2r	1e
.	.	2c	2A	.
[1D	1r	2.f	2A	4d
.	.	.	.	4e
.	.	.	2F	4f
.	.	4e	.	4g
=88	=88	=88	=88	=88
1D]	0r	2d	1f	4a
.	.	.	.	4b-
.	.	2c	.	1a
1E	.	1B	1e	.
.	.	.	.	2g#
=89	=89	=89	=89	=89
1AA	1r	1A	1c#	1a
[1D	[1A	1r	[1d	[1f#
=90	=90	=90	=90	=90
1D]	1A]	0r	1d]	1f#]
1GG	1d	.	1B	1g
=91	=91	=91	=91	=91
1AA	1c#	1r	1A	1e
1D	1d	[1d	1A	1f#
=92	=92	=92	=92	=92
0GG	0B	1d]	4G	0g
.	.	.	4A	.
.	.	.	4B	.
.	.	.	4c	.
.	.	1g	1d	.
=93	=93	=93	=93	=93
1D	1A	1f#	2.d	1a
.	.	.	4c	.
1r	1E	1g	2B	1b
.	.	.	[2e	.
=94	=94	=94	=94	=94
0AA	1.A	0e	4e]	1.cc
.	.	.	4d	.
.	.	.	4c	.
.	.	.	4B	.
.	.	.	[1A	.
.	2A	.	.	2a
=95	=95	=95	=95	=95
1.D	0F#	1d	1A]	1a
.	.	1A	2r	2.dd
2D	.	.	[2d	.
.	.	.	.	4cc
=96	=96	=96	=96	=96
1GG	1G	1.d	2d]	4b
.	.	.	.	4a
.	.	.	1g	1b
1D	1A	.	.	.
.	.	2d	2f	[2a
=97	=97	=97	=97	=97
1E	1r	0B	[0e	2a]
.	.	.	.	4g
.	.	.	.	4f#
1r	1E	.	.	1g#
=98	=98	=98	=98	=98
1AA	1A	1c	1e]	2.a
.	.	.	.	4g
1D	1A	1d	1f	4f
.	.	.	.	4e
.	.	.	.	4d
.	.	.	.	4c
=99	=99	=99	=99	=99
1E	1G#	1r	1e	4B
.	.	.	.	4A
.	.	.	.	2B
1F	2.A	1A	1c	2A
.	.	.	.	[2a
.	4G	.	.	.
=100	=100	=100	=100	=100
0D	1.F	1d	1f	2a]
.	.	.	.	2a
.	.	1d	1d	1a
.	2F	.	.	.
=101	=101	=101	=101	=101
1AA	1E	1c#	1e	1a
1D	1r	2.d	2f	2r
.	.	.	2f	[2a
.	.	4c	.	.
=102	=102	=102	=102	=102
0E	1r	1.B	0e	2a]
.	.	.	.	4g
.	.	.	.	4f#
.	1E	.	.	2g#
.	.	2B	.	2g#
=103	=103	=103	=103	=103
1AA	1E	1A	1c	2a
.	.	.	.	2a
1D	1F#	1r	1d	1a
=104	=104	=104	=104	=104
1GG	1G	1r	1d	1b
1AA	1E	1A	2c	2.cc
.	.	.	[2e	.
.	.	.	.	4b
=105	=105	=105	=105	=105
0D	1.F	1A	2e]	1a
.	.	.	4d	.
.	.	.	4c	.
.	.	1B	1d	1dd
.	4E	.	.	.
.	4D	.	.	.
=106	=106	=106	=106	=106
0AA	0A	1c	[0e	0cc
.	.	1A	.	.
=107	=107	=107	=107	=107
0E	0G#	0B	0e]	0b
*-	*-	*-	*-	*-
!!!CDT: 1525/^1526/-1594/2/2
!!!OCY: Italia
!!!AGN: Mass (Canonic)
!!!AST: renaissance, vocal
!!!ASW: Motet 1538 (Jacquet)
!!!PWK: Masses, Book 3
!!!RNB: Cadence finals: A,G,C
!!!YOR: Le Opere Complete, v. 6, p. 136
!!!YOO: Rome, Italy: Fratelli Scalera
!!!END: 1992//
!!!EED: John Miller
!!!YEC: Copyright 2000, John Miller
!!!YEN: United States of America
!!!YEM: Rights to all derivative electronic formats reserved.
!!!YEM: Refer to licensing agreement for further details.
!!!YEM: This file must be accompanied by the licensing agreement.
!!!YEM: A copy of the licensing agreement may be found at http://www.music-cog.ohio-state.edu/HumdrumDatabases/Palestrina/license.txt
!!!EMD: converted to Humdrum by Bret Aarden
